!!!!SEGMENT: pl-kk--kk-i-7--053-001_goudimel-claude--missa-de-sanctis-martyribus-kyrie.krn
!!!id: 16xx:875
!!!COM: Goudimel, Claude
!!!COM-rism: pe387526
!!!CDT: ~1514-1572/08
!!!CNT: French
!!!OTL: Missa de Sanctis Martyribus – Kyrie
!!!PDT:
!!!SMS-siglum: PL-Kk
!!!SMS-shelfmark: Kk.I.7
!!!NIFC-rismID: 300258130
!!!URL-scan: http://repozytorium.nifc.pl/skany/pl-kk-nut--i-7
!!!ONB-nifc: UWAGA: C (skan 0050-0051, s.93-95), A (0134-0135, s.88-90), T(0210-0211, s.83-85), B(0298-0299, s.82-84). Części Mszy: 1. Kyrie, 2. Et in terra, 3. Sanctus, 4. Agnus Dei. "Agnus II" rozpisane na 5 głosów. Głos dodatkowy rozpisany w księdze C na stronie 95.
!!!SMS-variant:
!!!SMS-altvar:
**kern	**text	**kern	**text	**kern	**text	**kern	**text
*part4	*part4	*part3	*part3	*part2	*part2	*part1	*part1
*staff4	*staff4	*staff3	*staff3	*staff2	*staff2	*staff1	*staff1
*I"BASSVS.	*	*I"TENOR.	*	*I"ALTVS.	*	*I"CANTVS.	*
*I'B	*	*I'T	*	*I'A	*	*I'S	*
*clefF4	*	*clefC4	*	*clefC3	*	*clefC1	*
*k[b-]	*	*k[b-]	*	*k[b-]	*	*k[b-]	*
*M2/1	*	*M2/1	*	*M2/1	*	*M2/1	*
*met(c|)	*	*met(c|)	*	*met(c|)	*	*met(c|)	*
=1	=1	=1	=1	=1	=1	=1	=1
!LO:TX:t=P:problem:kreska pseudotaktowa	!	!	!	!	!	!	!
!LO:TX:t=P:problem:przy kluczu BB- B-	!	!LO:TX:i:t=Miſsa de S(an)ctis Martyribus.	!	!LO:TX:i:t=Miſsa\nDe Sanctis\nMartyrib(us).	!	!LO:TX:i:t=Miſsa de S(an)ctis Martyrib(us)	!
!LO:TX:i:t=Miſsa\nDe Sanctis\nMartyribus	!	!	!	!	!	!	!
1r	.	2rF	.	2.G/	Ky-	1.g\	Ky-
.	.	2.G/	Ky-	.	.	.	.
.	.	.	.	4A/	.	.	.
2.GG/	Ky-	.	.	4B-/	-ri-	.	.
.	.	4A/	-ri-	4c/	.	.	.
.	.	4B-/	.	1d\	-e	2g/	-ri-
!LO:TX:t=P:problem:kreska pseudotaktowa	!	!LO:TX:t=P:problem:kreska pseudotaktowa	!	!	!	!	!
4AA/	-ri-	4c/	.	.	.	.	.
=2-	=2-	=2-	=2-	=2-	=2-	=2-	=2-
4BB-/	-e	1d\	-e	.	.	2.fn/	-e
4C/	.	.	.	.	.	.	.
!	!	!	!	!LO:TX:t=P:problem:kreska pseudotaktowa	!	!	!
1D\	.	.	.	2A/	.	.	.
!	!	!	!	!	!	!LO:TX:t=P:problem:kreska pseudotaktowa	!
.	.	.	.	.	.	4e/	.
*	*	*2\right	*	*2\right	*	*	*
.	.	2B-\	e-	2d\	e-	4f/	.
.	.	.	.	.	.	4g/	.
!LO:TX:t=P:problem:kreska pseudotaktowa	!	!	!	!	!	!	!
2C/	.	2.c\	-lei-	1e\	-lei-	2.a/	e-
=3-	=3-	=3-	=3-	=3-	=3-	=3-	=3-
!LO:SIC:v:s=1En	!	!	!	!	!	!	!
!LO:TX:t=P:problem:♭ above	!	!	!	!	!	!	!
1E-X\	e-	.	.	.	.	.	.
.	.	4B-\	.	.	.	4g/	.
.	.	4A/	.	2c/	.	1g\	.
!	!	!LO:TX:t=P:problem:kreska pseudotaktowa	!	!	!	!	!
.	.	4G/	.	.	.	.	.
1D\	-lei-	2A\	.	1d\	.	.	.
!	!	!	!	!	!	!LO:TX:t=P:problem:kreska pseudotaktowa	!
.	.	2A\	.	.	.	2f/	lei-
=4-	=4-	=4-	=4-	=4-	=4-	=4-	=4-
!LO:TX:t=P:problem:kreska pseudotaktowa	!	!LO:TX:t=P:problem:kreska pseudotaktowa	!	!	!	!LO:TX:t=P:problem:rozdzielacz słów:global	!
0GG/	-son	1G/	-son	2B-/	son	1g\,<	-son
.	.	.	.	2.G/	Ky-	.	.
.	.	2rF	.	.	.	2.d/	Ky-
.	.	.	.	4A/	.	.	.
.	.	2.D/	Ky-	4B-/	.	.	.
.	.	.	.	4c/	.	4e/	.
=5-	=5-	=5-	=5-	=5-	=5-	=5-	=5-
!LO:TX:t=P:problem:kreska pseudotaktowa	!	!	!	!	!	!	!
00r	.	.	.	1d\	.	4f/	.
.	.	4E/	.	.	.	4g/	.
*	*	*	*	*	*	*2\right	*
!	!	!	!	!	!	!LO:TX:t=P:problem:kreska pseudotaktowa	!
.	.	4F/	-ri-	.	.	2a\	.
!	!	!LO:TX:t=P:problem:kreska pseudotaktowa	!	!	!	!	!
.	.	4G/	.	.	.	.	.
.	.	2A\	-e	2c\	ri-	2f/	-ri-
.	.	2G/	e-	2.e\	-e	2.g/	-e
=6-	=6-	=6-	=6-	=6-	=6-	=6-	=6-
!	!	!LO:TX:t=P:problem:kreska pseudotaktowa	!	!	!	!	!
.	.	1B-\	-lei-	.	.	.	.
.	.	.	.	4d\	.	4f/	.
.	.	.	.	1d\	.	4e/	.
.	.	.	.	.	.	4d/	.
.	.	1A\	.	.	.	2e/	.
!	!	!	!	!LO:TX:t=P:problem:kreska pseudotaktowa	!	!LO:TX:t=P:problem:kreska pseudotaktowa	!
.	.	.	.	2c\	.	2e/	[e]-
=7-	=7-	=7-	=7-	=7-	=7-	=7-	=7-
!	!	!LO:TX:t=P:problem:kreska pseudotaktowa	!	!	!	!	!
!	!	!LO:TX:t=P:problem:rozdzielacz słów:global	!	!	!	!	!
2r	.	1D/,<	-son	2.d\	e-	4d/	.
.	.	.	.	.	.	4e/	.
*2\right	*	*	*	*	*	*	*
2.D\	Ky-	.	.	.	.	4f/	.
.	.	.	.	4e\	.	4g/	.
*	*	*	*ij	*	*	*	*
.	.	1d\	Ky-	1f\	.	4a\	.
4Eny\	ri-	.	.	.	.	4g\	.
4F\	.	.	.	.	.	4a\	.
!LO:TX:t=P:problem:kreska pseudotaktowa	!	!	!	!	!	!	!
4G\	.	.	.	.	.	4b-\	.
=8-	=8-	=8-	=8-	=8-	=8-	=8-	=8-
2A\	-e	2c\	-ri-	2e\	.	2cc\	.
2G\	.	2.e\	-e	2.g\	.	1b-\	.
!LO:TX:t=P:problem:kreska pseudotaktowa	!	!	!	!	!	!	!
1B-\	.	.	.	.	.	.	.
.	.	4d\	.	4f\	.	.	.
!	!	!	!	!	!	!LO:TX:t=P:problem:kreska pseudotaktowa	!
.	.	1d\	e-	4e\	.	2g\	-lei-
.	.	.	.	4d\	.	.	.
=9-	=9-	=9-	=9-	=9-	=9-	=9-	=9-
*	*	*	*	*lig	*	*	*
2.A\	e-	.	.	1e\	.	2a,<\	-son
*	*	*	*	*	*	*	*ij
!	!	!LO:TX:t=P:problem:kreska pseudotaktowa	!	!	!	!	!
.	.	2c\	.	.	.	2a\	Ky-
4G\	.	.	.	.	.	.	.
2F\	.	1d\	.	1f\	.	2a\	-ri-
2D\	.	.	.	.	.	2.b-\	-e
*	*	*	*	*Xlig	*	*	*
=10-	=10-	=10-	=10-	=10-	=10-	=10-	=10-
*lig	*	*lig	*	*	*	*	*
1E-X\	-lei-	1G/	-lei-	2B-/	-lei-	.	.
.	.	.	.	.	.	4a\	.
.	.	.	.	2c\	.	1g\	e-
1D\	.	1A\	.	1d\	.	.	.
.	.	.	.	.	.	2f#X/	-lei-
*Xlig	*	*Xlig	*	*	*	*	*
=11-	=11-	=11-	=11-	=11-	=11-	=11-	=11-
0GG/;	-son	0G/;	-son.	0d\;	-son.	0g\;	-son
=12||	=12||	=12||	=12||	=12||	=12||	=12||	=12||
*M2/1	*	*M2/1	*Xij	*M2/1	*	*M2/1	*Xij
*met(c|)	*	*met(c|)	*	*met(c|)	*	*met(c|)	*
!	!	!LO:LB:g=original	!	!LO:LB:g=original	!	!LO:LB:g=original	!
1G\	Chri-	0r	.	0d\	Chri-	1g\	Chri-
2F\	-ste	.	.	.	.	2a\	-ste
2.G\	e-	.	.	.	.	2.b-\	.
=13-	=13-	=13-	=13-	=13-	=13-	=13-	=13-
!	!	!LO:TX:t=P:problem:kreska pseudotaktowa	!	!	!	!	!
.	.	1r	.	1d\	-ste	.	.
4F\	.	.	.	.	.	4a/	.
4E\	.	.	.	.	.	4g/	.
!LO:TX:t=P:problem:kreska pseudotaktowa	!	!	!	!	!	!LO:TX:t=P:problem:kreska pseudotaktowa	!
4D\	.	.	.	.	.	4fny/	.
!LO:TX:t=P:problem:♭ above	!	!	!	!LO:TX:t=P:problem:kreska pseudotaktowa	!	!	!
1E-X\	-lei-	1G/	Chri-	1c\	e-	1g\	.
=14-	=14-	=14-	=14-	=14-	=14-	=14-	=14-
!LO:TX:t=P:problem:kreska pseudotaktowa	!	!	!	!	!	!	!
1D\	-ſon	2A\	-ste	2.d\	.	2f/	.
.	.	2.B-\	e-	.	.	1dd\	e-
.	.	.	.	4e\	.	.	.
!LO:TX:t=P:problem:kreska pseudotaktowa	!	!	!	!	!	!	!
!LO:SIC:v:t=custos F	!	!	!	!	!	!	!
0r	.	.	.	2.f\	.	.	.
.	.	4A/	.	.	.	.	.
.	.	4A/	.	.	.	1cc\	.
.	.	8G/L	.	8e\L	.	.	.
!	!	!	!	!LO:TX:t=P:problem:kreska pseudotaktowa	!	!	!
.	.	8F/J	.	8d\J	.	.	.
=15-	=15-	=15-	=15-	=15-	=15-	=15-	=15-
.	.	1G/	-lei-	4e\	.	.	.
.	.	.	.	4d\	.	.	.
.	.	.	.	4d\	.	1b-\	.
.	.	.	.	8c/L	.	.	.
.	.	.	.	8B-/J	.	.	.
!LO:LB:g=original	!	!LO:TX:t=P:problem:kreska pseudotaktowa	!	!	!	!	!
2r	.	1F/	-son	2.c\	.	.	.
!LO:TX:t=P:problem:kreska pseudotaktowa	!	!	!	!	!	!	!
2F\	X-	.	.	.	.	2.a\	.
.	.	.	.	4d\	.	.	.
=16-	=16-	=16-	=16-	=16-	=16-	=16-	=16-
*	*	*	*ij	*	*	*	*
2G\	-te	2.B-\	Chri-	2e\	.	.	.
.	.	.	.	.	.	4g/	.
!	!	!	!	!LO:TX:t=P:problem:kreska pseudotaktowa	!	!LO:TX:t=P:problem:kreska pseudotaktowa	!
1B-\	e-	.	.	2d\	.	[<2g/	-lei-
.	.	4c\	.	.	.	.	.
!	!	!	!	!	!	!LO:N:xstem:cue	!
.	.	2d\	-ste	2B-/	-lei-	4g\]	.
.	.	.	.	.	.	4f/	.
2A\	.	2.c\	e-	2c/	.	1f/	.
=17-	=17-	=17-	=17-	=17-	=17-	=17-	=17-
*lig	*	*	*	*	*	*	*
1G\	.	.	.	2d\	.	.	.
.	.	4B-\	.	.	.	.	.
.	.	1B-\	.	4c/	.	2e/	.
.	.	.	.	4B-/	.	.	.
!	!	!	!	!	!	!LO:TX:t=P:problem:kreska pseudotaktowa	!
1F\	.	.	.	1c\	.	1f/	-son
.	.	2A\	lei-	.	.	.	.
*Xlig	*	*	*	*	*	*	*
=18-	=18-	=18-	=18-	=18-	=18-	=18-	=18-
!	!	!LO:TX:t=P:problem:kreska pseudotaktowa	!	!LO:TX:t=P:problem:kreska pseudotaktowa	!	!	!
4BB-/	.	1B-\	-son	0d\	son	2r	.
*	*	*	*Xij	*	*	*	*
4C/	.	.	.	.	.	.	.
4D/	-lei-	.	.	.	.	2b-\	Chri-
4Eny/	.	.	.	.	.	.	.
2F\	.	2r	.	.	.	2a\	-ste
!LO:TX:t=P:problem:kreska pseudotaktowa	!	!	!	!	!	!LO:TX:t=P:problem:kreska pseudotaktowa	!
2G\	.	2B-\	X-	.	.	2b-\	.
=19-	=19-	=19-	=19-	=19-	=19-	=19-	=19-
!LO:TX:t=P:problem:rozdzielacz słów:global	!	!	!	!LO:TX:t=P:problem:kreska pseudotaktowa	!	!	!
2F,<\	-son	2A\	-te	1rA	.	2cc\	.
*	*ij	*	*	*	*	*	*
2BB-/	X-	1d\	e-	.	.	1b-\	e-
*	*	*	*	*	*ij	*	*
1E-X\	-te	.	.	1G/	Chri-	.	.
.	.	2c\	-lei-	.	.	4a\	.
.	.	.	.	.	.	4g\	.
=20-	=20-	=20-	=20-	=20-	=20-	=20-	=20-
!	!	!LO:TX:t=P:problem:kreska pseudotaktowa	!	!	!	!	!
2.D/	e-	0d\	-son	1A/	-ste	4f/	.
.	.	.	.	.	.	4g/	.
.	.	.	.	.	.	2.a\	-lei-
!LO:TX:t=P:problem:kreska pseudotaktowa	!	!	!	!	!	!	!
4C/	.	.	.	.	.	.	.
2BB-/	.	.	.	1B-/	e-	.	.
.	.	.	.	.	.	4g/	.
2GG/	.	.	.	.	.	1g\	.
=21-	=21-	=21-	=21-	=21-	=21-	=21-	=21-
*lig	*	*	*	*	*	*	*
!	!	!LO:TX:t=P:problem:kreska pseudotaktowa	!	!	!	!	!
1D\	lei-	1r	.	2A/	-lei-	.	.
.	.	.	.	1d\	.	2f#X/	.
!LO:TX:t=P:problem:♭ above	!	!	!	!	!	!	!
1E-X\	.	1G/	e-	.	.	1g\	.
.	.	.	.	2c\	.	.	.
*Xlig	*	*	*	*	*	*	*
=22-	=22-	=22-	=22-	=22-	=22-	=22-	=22-
[0D\;l	-son	1A\	-lei-	[0d\;l	-son	[0f#X/;l	-son
*	*Xij	*	*	*	*Xij	*	*
.	.	1B-\	.	.	.	.	.
=23-	=23-	=23-	=23-	=23-	=23-	=23-	=23-
0D\]	.	0A\;	-son.	0d\]	.	0f#/]	.
=24||	=24||	=24||	=24||	=24||	=24||	=24||	=24||
*M2/1	*	*M2/1	*	*M2/1	*	*M2/1	*
*met(c|)	*	*met(c|)	*	*met(c|)	*	*met(c|)	*
!	!	!LO:TX:t=P:problem:kreska pseudotaktowa	!	!	!	!LO:LB:g=original	!
!	!	!LO:LB:g=original	!	!LO:LB:g=original	!	!LO:TX:t=P:problem:kreska pseudotaktowa	!
0r	.	00r	.	1.g\	Ky-	1rb	.
.	.	.	.	.	.	1.dd\	Ky-
.	.	.	.	2g\	-ri-	.	.
=25-	=25-	=25-	=25-	=25-	=25-	=25-	=25-
!LO:TX:t=P:problem:kreska pseudotaktowa	!	!	!	!	!	!	!
1r	.	.	.	2f\	-e	.	.
.	.	.	.	4e\	.	2dd\	-ri-
!	!	!	!	!LO:TX:t=P:problem:kreska pseudotaktowa	!	!	!
.	.	.	.	4d\	.	.	.
2rF	.	.	.	2e-X\	e-	2cc\	-e
1G\	Ky-	.	.	1d\	-lei-	1b-\	.
=26-	=26-	=26-	=26-	=26-	=26-	=26-	=26-
.	.	1.d\	Ky-	.	.	.	.
!LO:TX:t=P:problem:kreska pseudotaktowa	!	!	!	!	!	!	!
2G\	-ri-	.	.	4c/	.	4a\	.
!	!	!	!	!	!	!LO:TX:t=P:problem:kreska pseudotaktowa	!
.	.	.	.	4B-/	.	4g\	.
2F\	-e	.	.	2A/	.	2a\	.
4E\	e-	2d\	-ri-	2B-/	.	2fny/	.
4D\	.	.	.	.	.	.	.
=27-	=27-	=27-	=27-	=27-	=27-	=27-	=27-
1E-X\	-lei-	2c\	-e	1G/	.	1g\	e-
.	.	1B-\	e-	.	.	.	.
!LO:TX:t=P:problem:kreska pseudotaktowa	!	!	!	!LO:TX:t=P:problem:kreska pseudotaktowa	!	!	!
0D\	-son	.	.	1d\	-son	2f/	-lei-
.	.	4A/	-lei-	.	.	2.g/	.
.	.	4G/	.	.	.	.	.
=28-	=28-	=28-	=28-	=28-	=28-	=28-	=28-
.	.	2A\	.	2r	.	.	.
.	.	.	.	.	.	4f/	.
*	*	*	*	*	*ij	*	*
.	.	2B-\	.	1d\	Ky-	4f/	.
.	.	.	.	.	.	8e/L	.
!	!	!	!	!	!	!LO:TX:t=P:problem:kreska pseudotaktowa	!
.	.	.	.	.	.	8d/J	.
!	!	!LO:TX:t=P:problem:kreska pseudotaktowa	!	!	!	!	!
1r	.	1A\	-son	.	.	1e/	.
.	.	.	.	2c\	-ri-	.	.
=29-	=29-	=29-	=29-	=29-	=29-	=29-	=29-
!	!	!	!	!	!	!LO:TX:t=P:problem:kreska pseudotaktowa	!
*	*	*	*ij	*	*	*	*
2rBB	.	2.D/	Ky-	2.f\	-e	1d/	-son
1D\	Ky-	.	.	.	.	.	.
.	.	4E/	-ri-	4eny\	.	.	.
.	.	2F/	-e	2d\	e-	2re	.
!	!	!LO:TX:t=P:problem:kreska pseudotaktowa	!	!	!	!	!
2C/	.	2E/	.	2.en\	.	1a\	Ky-
=30-	=30-	=30-	=30-	=30-	=30-	=30-	=30-
2D/	-ri-	2F/	e-	.	.	.	.
.	.	.	.	4d\	.	.	.
!LO:TX:t=P:problem:kreska pseudotaktowa	!	!	!	!	!	!	!
!LO:SIC:v:t=custos AA	!	!	!	!	!	!	!
2BB-/	-e	4E/	.	1d\	.	2g\	-ri-
.	.	4D/	.	.	.	.	.
!LO:LB:g=original	!	!	!	!	!	!	!
1AA/	e-	1E/	.	.	.	1a\	-e
!	!	!	!	!LO:TX:t=P:problem:♯ above	!	!	!
.	.	.	.	2c#X\	-lei-	.	.
=31-	=31-	=31-	=31-	=31-	=31-	=31-	=31-
!	!	!	!	!LO:TX:t=P:problem:kreska pseudotaktowa	!	!	!
2BB-/	-lei-	2D/	.	0d\	-son	2f/	.
2.GG/	.	2.B-\	.	.	.	2g/	.
*	*	*	*	*	*Xij	*lig	*
.	.	.	.	.	.	1b-\	.
4AA/	.	4A/	.	.	.	.	.
4BB-/	.	1G/	-lei-	.	.	.	.
4C/	.	.	.	.	.	.	.
=32-	=32-	=32-	=32-	=32-	=32-	=32-	=32-
!LO:TX:t=P:problem:kreska pseudotaktowa	!	!	!	!	!	!LO:TX:t=P:problem:kreska pseudotaktowa	!
1D\	.	.	.	2r	.	1a\	.
.	.	2F/	.	1d\	Ky-	.	.
*	*	*	*	*	*	*Xlig	*
!	!	!LO:TX:t=P:problem:kreska pseudotaktowa	!	!	!	!	!
2GG,</	-son	1G/	-son	.	.	2g\	.
*	*	*	*Xij	*	*	*	*
1G\	Ky-	.	.	2d\	-ri-	1b-\	e-
=33-	=33-	=33-	=33-	=33-	=33-	=33-	=33-
.	.	2r	.	2B-/	-e	.	.
!LO:TX:t=P:problem:kreska pseudotaktowa	!	!	!	!	!	!	!
2G\	-ri-	1d\	Ky-	4A/	.	2b-\	-lei-
!	!	!	!	!LO:TX:t=P:problem:kreska pseudotaktowa	!	!	!
.	.	.	.	4G/	.	.	.
2F\	-e	.	.	2A/	e-	2a\	.
4E-X\	.	2d\	-ri-	2B-/	.	4g/	.
4D\	.	.	.	.	.	4f/	.
=34-	=34-	=34-	=34-	=34-	=34-	=34-	=34-
!LO:TX:t=P:problem:kreska pseudotaktowa	!	!	!	!	!	!	!
1E-y\	e-	2B-\	-e	4G/	.	2g\	.
.	.	.	.	4A/	.	.	.
!	!	!	!	!	!	!LO:TX:t=P:problem:kreska pseudotaktowa	!
.	.	2G/	e-	4B-/	.	2g\	.
.	.	.	.	4cny/	.	.	.
2.D/	-lei-	2B-\	-lei-	4d\	.	4f/	.
.	.	.	.	4e\	.	4g/	.
!	!	!LO:TX:t=P:problem:kreska pseudotaktowa	!	!	!	!	!
.	.	2A\	-ſon	4f\	.	4a/	.
8C/L	.	.	.	8e\L	.	4b-/	.
!LO:TX:t=P:problem:kreska pseudotaktowa	!	!	!	!LO:TX:t=P:problem:kreska pseudotaktowa	!	!	!
8BB-/J	.	.	.	8d\J	.	.	.
=35-	=35-	=35-	=35-	=35-	=35-	=35-	=35-
2AA/	.	2r	.	4e\	.	2cc\	.
.	.	.	.	4f\	.	.	.
*	*	*	*ij	*	*	*	*
4GG/	.	1d\	Ky-	1g\	.	1b-\	.
!LO:TX:t=P:problem:kreska pseudotaktowa	!	!	!	!	!	!	!
4AA/	.	.	.	.	.	.	.
4BB-/	.	.	.	.	.	.	.
4C/	.	.	.	.	.	.	.
4D/	.	2d\	-ri-	2.f\	-lei-	1a\	.
4Eny/	.	.	.	.	.	.	.
=36-	=36-	=36-	=36-	=36-	=36-	=36-	=36-
2F\	.	2c\	-e	.	.	.	.
.	.	.	.	4e\	.	.	.
!LO:TX:t=P:problem:kreska pseudotaktowa	!	!	!	!	!	!	!
2G\	.	2B-\	e-	4d\	.	2.g/	.
.	.	.	.	4c\	.	.	.
1D\	.	1A\	-lei-	1d\	.	.	.
.	.	.	.	.	.	4f#X/	.
.	.	.	.	.	.	2f#/	.
=37-	=37-	=37-	=37-	=37-	=37-	=37-	=37-
0GG/;	-son.	0Bn\;	-ſon	0d\;	-son	0g\;	-son.
*	*	*	*Xij	*	*	*	*
==	==	==	==	==	==	==	==
*-	*-	*-	*-	*-	*-	*-	*-
!!!RDF**kern: > = above
!!!RDF**kern: < = below
!!!RDF**kern: l = terminal long
!!!system-decoration: [(s1,s2,s3,s4)]
!!!EED: Andrzej Borzym
!!!EST: 2021-03-17
!!!ENC: Andrzej Kubiczek
!!!END: 2021-03-01
